**harm	**harte	**timestamp	**phrase	**leadinstrument	**kern
*M4/4	*M4/4	*	*	*	*
*E:	*E:	*	*	*	*E:
1r;	N	0	.	r	1r;
=1	=1	=1	=1	=1	=1
*>A_intro	*>A_intro	*>A_intro	*>A_intro	*>A_intro	*>A_intro
2I	E:maj	0.667	newline	r	2E 2g# 2b
2IV	A:maj	1.631	.	r	2A 2cc# 2ee
=2	=2	=2	=2	=2	=2
1I	E:maj	2.594	.	r	1E 1g# 1b
=3	=3	=3	=3	=3	=3
2I	E:maj	4.521	.	r	2E 2g# 2b
2IV	A:maj	5.484	.	r	2A 2cc# 2ee
=4	=4	=4	=4	=4	=4
1I	E:maj	6.447	.	r	1E 1g# 1b
=5	=5	=5	=5	=5	=5
*>B_verse	*>B_verse	*>B_verse	*>B_verse	*>B_verse	*>B_verse
2I	E:maj	8.374	newline	voice	2E 2g# 2b
2IV	A:maj	9.328	.	voice	2A 2cc# 2ee
=6	=6	=6	=6	=6	=6
1I	E:maj	10.282	.	voice	1E 1g# 1b
=7	=7	=7	=7	=7	=7
2I	E:maj	12.19	.	voice	2E 2g# 2b
2IV	A:maj	13.144	.	voice	2A 2cc# 2ee
=8	=8	=8	=8	=8	=8
1I	E:maj	14.098	.	voice	1E 1g# 1b
=9	=9	=9	=9	=9	=9
2I	E:maj	16.006	newline	voice	2E 2g# 2b
2IV	A:maj	16.954	.	voice	2A 2cc# 2ee
=10	=10	=10	=10	=10	=10
1I	E:maj	17.902	.	voice	1E 1g# 1b
=11	=11	=11	=11	=11	=11
2I	E:maj	19.798	.	voice	2E 2g# 2b
2IV	A:maj	20.746	.	voice	2A 2cc# 2ee
=12	=12	=12	=12	=12	=12
1I	E:maj	21.694	.	voice	1E 1g# 1b
=13	=13	=13	=13	=13	=13
*>C_prechorus	*>C_prechorus	*>C_prechorus	*>C_prechorus	*>C_prechorus	*>C_prechorus
*F:	*F:	*	*	*	*F:
2IV	B-:maj	23.59	newline	voice	2B- 2dd 2ff
2I	F:maj	24.543	.	voice	2F 2a 2cc
=14	=14	=14	=14	=14	=14
2V	C:maj	25.496	.	voice	2C 2e 2g
2I	F:maj	26.449	.	voice	2F 2a 2cc
=15	=15	=15	=15	=15	=15
2IV	B-:maj	27.402	.	voice	2B- 2dd 2ff
2V	C:maj	28.355	.	voice	2C 2e 2g
=16	=16	=16	=16	=16	=16
1I	F:maj	29.308	.	voice	1F 1a 1cc
=17	=17	=17	=17	=17	=17
2IV	B-:maj	31.214	newline	voice	2B- 2dd 2ff
2I	F:maj	32.165	.	voice	2F 2a 2cc
=18	=18	=18	=18	=18	=18
2V	C:maj	33.116	.	voice	2C 2e 2g
2I	F:maj	34.067	.	voice	2F 2a 2cc
=19	=19	=19	=19	=19	=19
2IV	B-:maj	35.019	.	voice	2B- 2dd 2ff
2II	G:maj	35.97	.	voice	2G 2b 2dd
=20	=20	=20	=20	=20	=20
1V	C:maj	36.921	.	voice	1C 1e 1g
=21	=21	=21	=21	=21	=21
*>D_chorus	*>D_chorus	*>D_chorus	*>D_chorus	*>D_chorus	*>D_chorus
*E:	*E:	*	*	*	*E:
2I	E:maj	38.824	newline	voice	2E 2g# 2b
2IV	A:maj	39.77	.	voice	2A 2cc# 2ee
=22	=22	=22	=22	=22	=22
2-VII	D:maj	40.716	.	voice	2D 2f# 2a
2IV	A:maj	41.662	.	voice	2A 2cc# 2ee
=23	=23	=23	=23	=23	=23
2I	E:maj	42.608	.	voice	2E 2g# 2b
2IV	A:maj	43.555	.	voice	2A 2cc# 2ee
=24	=24	=24	=24	=24	=24
2-VII	D:maj	44.501	.	voice	2D 2f# 2a
2IV	A:maj	45.447	.	voice	2A 2cc# 2ee
=25	=25	=25	=25	=25	=25
2I	E:maj	46.393	newline	voice	2E 2g# 2b
2IV	A:maj	47.345	.	voice	2A 2cc# 2ee
=26	=26	=26	=26	=26	=26
2-VII	D:maj	48.297	.	voice	2D 2f# 2a
2IV	A:maj	49.25	.	voice	2A 2cc# 2ee
=27	=27	=27	=27	=27	=27
2I	E:maj	50.202	.	voice	2E 2g# 2b
2IV	A:maj	51.154	.	voice	2A 2cc# 2ee
=28	=28	=28	=28	=28	=28
2-VII	D:maj	52.106	.	voice	2D 2f# 2a
2IV	A:maj	53.058	.	voice	2A 2cc# 2ee
=29	=29	=29	=29	=29	=29
*>A_trans	*>A_trans	*>A_trans	*>A_trans	*>A_trans	*>A_trans
2I	E:maj	54.01	newline	voice	2E 2g# 2b
2IV	A:maj	54.964	.	voice	2A 2cc# 2ee
=30	=30	=30	=30	=30	=30
1I	E:maj	55.918	.	voice	1E 1g# 1b
=31	=31	=31	=31	=31	=31
2I	E:maj	57.825	.	voice	2E 2g# 2b
2IV	A:maj	58.779	.	voice	2A 2cc# 2ee
=32	=32	=32	=32	=32	=32
1I	E:maj	59.733	.	voice	1E 1g# 1b
=33	=33	=33	=33	=33	=33
*>B_verse	*>B_verse	*>B_verse	*>B_verse	*>B_verse	*>B_verse
2I	E:maj	61.64	newline	voice	2E 2g# 2b
2IV	A:maj	62.596	.	voice	2A 2cc# 2ee
=34	=34	=34	=34	=34	=34
1I	E:maj	63.551	.	voice	1E 1g# 1b
=35	=35	=35	=35	=35	=35
2I	E:maj	65.462	.	voice	2E 2g# 2b
2IV	A:maj	66.418	.	voice	2A 2cc# 2ee
=36	=36	=36	=36	=36	=36
1I	E:maj	67.373	.	voice	1E 1g# 1b
=37	=37	=37	=37	=37	=37
2I	E:maj	69.284	newline	voice	2E 2g# 2b
2IV	A:maj	70.237	.	voice	2A 2cc# 2ee
=38	=38	=38	=38	=38	=38
1I	E:maj	71.19	.	voice	1E 1g# 1b
=39	=39	=39	=39	=39	=39
2I	E:maj	73.097	.	voice	2E 2g# 2b
2IV	A:maj	74.05	.	voice	2A 2cc# 2ee
=40	=40	=40	=40	=40	=40
1I	E:maj	75.003	.	voice	1E 1g# 1b
=41	=41	=41	=41	=41	=41
*>C_prechorus	*>C_prechorus	*>C_prechorus	*>C_prechorus	*>C_prechorus	*>C_prechorus
*F:	*F:	*	*	*	*F:
2IV	B-:maj	76.909	newline	voice	2B- 2dd 2ff
2I	F:maj	77.857	.	voice	2F 2a 2cc
=42	=42	=42	=42	=42	=42
2V	C:maj	78.804	.	voice	2C 2e 2g
2I	F:maj	79.751	.	voice	2F 2a 2cc
=43	=43	=43	=43	=43	=43
2IV	B-:maj	80.699	.	voice	2B- 2dd 2ff
2V	C:maj	81.646	.	voice	2C 2e 2g
=44	=44	=44	=44	=44	=44
1I	F:maj	82.593	.	voice	1F 1a 1cc
=45	=45	=45	=45	=45	=45
2IV	B-:maj	84.488	newline	voice	2B- 2dd 2ff
2I	F:maj	85.425	.	voice	2F 2a 2cc
=46	=46	=46	=46	=46	=46
2V	C:maj	86.363	.	voice	2C 2e 2g
2I	F:maj	87.3	.	voice	2F 2a 2cc
=47	=47	=47	=47	=47	=47
2IV	B-:maj	88.238	.	voice	2B- 2dd 2ff
2II	G:maj	89.175	.	voice	2G 2b 2dd
=48	=48	=48	=48	=48	=48
1V	C:maj	90.113	.	voice	1C 1e 1g
=49	=49	=49	=49	=49	=49
*>D_chorus	*>D_chorus	*>D_chorus	*>D_chorus	*>D_chorus	*>D_chorus
*E:	*E:	*	*	*	*E:
2I	E:maj	91.988	newline	voice	2E 2g# 2b
2IV	A:maj	92.933	.	voice	2A 2cc# 2ee
=50	=50	=50	=50	=50	=50
2-VII	D:maj	93.878	.	voice	2D 2f# 2a
2IV	A:maj	94.823	.	voice	2A 2cc# 2ee
=51	=51	=51	=51	=51	=51
2I	E:maj	95.768	.	voice	2E 2g# 2b
2IV	A:maj	96.713	.	voice	2A 2cc# 2ee
=52	=52	=52	=52	=52	=52
2-VII	D:maj	97.658	.	voice	2D 2f# 2a
2IV	A:maj	98.603	.	voice	2A 2cc# 2ee
=53	=53	=53	=53	=53	=53
2I	E:maj	99.548	newline	voice	2E 2g# 2b
2IV	A:maj	100.502	.	voice	2A 2cc# 2ee
=54	=54	=54	=54	=54	=54
2-VII	D:maj	101.457	.	voice	2D 2f# 2a
2IV	A:maj	102.412	.	voice	2A 2cc# 2ee
=55	=55	=55	=55	=55	=55
2I	E:maj	103.366	.	voice	2E 2g# 2b
2IV	A:maj	104.321	.	voice	2A 2cc# 2ee
=56	=56	=56	=56	=56	=56
2-VII	D:maj	105.275	.	voice	2D 2f# 2a
2IV	A:maj	106.23	.	voice	2A 2cc# 2ee
=57	=57	=57	=57	=57	=57
*>E_bridge	*>E_bridge	*>E_bridge	*>E_bridge	*>E_bridge	*>E_bridge
1v	B:min	107.184	newline	voice	1B 1dd 1ff#
=58	=58	=58	=58	=58	=58
1v	B:min	109.097	.	voice	1B 1dd 1ff#
=59	=59	=59	=59	=59	=59
1-III	G:maj	111.009	.	voice	1G 1b 1dd
=60	=60	=60	=60	=60	=60
1-III	G:maj	112.921	.	voice	1G 1b 1dd
=61	=61	=61	=61	=61	=61
1v	B:min	114.833	newline	voice	1B 1dd 1ff#
=62	=62	=62	=62	=62	=62
1v	B:min	116.749	.	voice	1B 1dd 1ff#
=63	=63	=63	=63	=63	=63
1-III	G:maj	118.665	.	voice	1G 1b 1dd
=64	=64	=64	=64	=64	=64
1-III	G:maj	120.581	.	voice	1G 1b 1dd
=65	=65	=65	=65	=65	=65
*>A_trans	*>A_trans	*>A_trans	*>A_trans	*>A_trans	*>A_trans
2I	E:maj	122.497	newline	voice	2E 2g# 2b
2IV	A:maj	123.444	.	voice	2A 2cc# 2ee
=66	=66	=66	=66	=66	=66
1I	E:maj	124.392	.	voice	1E 1g# 1b
=67	=67	=67	=67	=67	=67
2I	E:maj	126.288	.	voice	2E 2g# 2b
2IV	A:maj	127.236	.	voice	2A 2cc# 2ee
=68	=68	=68	=68	=68	=68
1I	E:maj	128.184	.	voice	1E 1g# 1b
=69	=69	=69	=69	=69	=69
*>B_verse	*>B_verse	*>B_verse	*>B_verse	*>B_verse	*>B_verse
2I	E:maj	130.08	newline	voice	2E 2g# 2b
2IV	A:maj	131.028	.	voice	2A 2cc# 2ee
=70	=70	=70	=70	=70	=70
1I	E:maj	131.977	.	voice	1E 1g# 1b
=71	=71	=71	=71	=71	=71
2I	E:maj	133.875	.	voice	2E 2g# 2b
2IV	A:maj	134.824	.	voice	2A 2cc# 2ee
=72	=72	=72	=72	=72	=72
1I	E:maj	135.773	.	voice	1E 1g# 1b
=73	=73	=73	=73	=73	=73
2I	E:maj	137.67	newline	voice	2E 2g# 2b
2IV	A:maj	138.614	.	voice	2A 2cc# 2ee
=74	=74	=74	=74	=74	=74
1I	E:maj	139.558	.	voice	1E 1g# 1b
=75	=75	=75	=75	=75	=75
2I	E:maj	141.446	.	voice	2E 2g# 2b
2IV	A:maj	142.39	.	voice	2A 2cc# 2ee
=76	=76	=76	=76	=76	=76
1I	E:maj	143.334	.	voice	1E 1g# 1b
=77	=77	=77	=77	=77	=77
*>C_prechorus	*>C_prechorus	*>C_prechorus	*>C_prechorus	*>C_prechorus	*>C_prechorus
*F:	*F:	*	*	*	*F:
2IV	B-:maj	145.222	newline	voice	2B- 2dd 2ff
2I	F:maj	146.167	.	voice	2F 2a 2cc
=78	=78	=78	=78	=78	=78
2V	C:maj	147.112	.	voice	2C 2e 2g
2I	F:maj	148.057	.	voice	2F 2a 2cc
=79	=79	=79	=79	=79	=79
2IV	B-:maj	149.002	.	voice	2B- 2dd 2ff
2V	C:maj	149.947	.	voice	2C 2e 2g
=80	=80	=80	=80	=80	=80
1I	F:maj	150.892	.	voice	1F 1a 1cc
=81	=81	=81	=81	=81	=81
2IV	B-:maj	152.782	newline	voice	2B- 2dd 2ff
2I	F:maj	153.723	.	voice	2F 2a 2cc
=82	=82	=82	=82	=82	=82
2V	C:maj	154.664	.	voice	2C 2e 2g
2I	F:maj	155.605	.	voice	2F 2a 2cc
=83	=83	=83	=83	=83	=83
2IV	B-:maj	156.547	.	voice	2B- 2dd 2ff
2II	G:maj	157.488	.	voice	2G 2b 2dd
=84	=84	=84	=84	=84	=84
1V	C:maj	158.429	.	voice	1C 1e 1g
=85	=85	=85	=85	=85	=85
*>D_chorus	*>D_chorus	*>D_chorus	*>D_chorus	*>D_chorus	*>D_chorus
*E:	*E:	*	*	*	*E:
2I	E:maj	160.312	newline	voice	2E 2g# 2b
2IV	A:maj	161.249	.	voice	2A 2cc# 2ee
=86	=86	=86	=86	=86	=86
2-VII	D:maj	162.186	.	voice	2D 2f# 2a
2IV	A:maj	163.123	.	voice	2A 2cc# 2ee
=87	=87	=87	=87	=87	=87
2I	E:maj	164.06	.	voice	2E 2g# 2b
2IV	A:maj	164.997	.	voice	2A 2cc# 2ee
=88	=88	=88	=88	=88	=88
2-VII	D:maj	165.934	.	voice	2D 2f# 2a
2IV	A:maj	166.871	.	voice	2A 2cc# 2ee
=89	=89	=89	=89	=89	=89
2I	E:maj	167.809	newline	voice	2E 2g# 2b
2IV	A:maj	168.756	.	voice	2A 2cc# 2ee
=90	=90	=90	=90	=90	=90
2-VII	D:maj	169.703	.	voice	2D 2f# 2a
2IV	A:maj	170.65	.	voice	2A 2cc# 2ee
=91	=91	=91	=91	=91	=91
2I	E:maj	171.598	.	voice	2E 2g# 2b
2IV	A:maj	172.545	.	voice	2A 2cc# 2ee
=92	=92	=92	=92	=92	=92
2-VII	D:maj	173.492	.	voice	2D 2f# 2a
2IV	A:maj	174.44	.	voice	2A 2cc# 2ee
=93	=93	=93	=93	=93	=93
2I	E:maj	175.387	newline	voice	2E 2g# 2b
2IV	A:maj	176.331	.	voice	2A 2cc# 2ee
=94	=94	=94	=94	=94	=94
2-VII	D:maj	177.274	.	voice	2D 2f# 2a
2IV	A:maj	178.217	.	voice	2A 2cc# 2ee
=95	=95	=95	=95	=95	=95
2I	E:maj	179.161	.	voice	2E 2g# 2b
2IV	A:maj	180.104	.	voice	2A 2cc# 2ee
=96	=96	=96	=96	=96	=96
2-VII	D:maj	181.047	.	voice	2D 2f# 2a
2IV	A:maj	181.991	.	voice	2A 2cc# 2ee
=97	=97	=97	=97	=97	=97
2I	E:maj	182.934	newline	voice	2E 2g# 2b
2IV	A:maj	183.878	.	voice	2A 2cc# 2ee
=98	=98	=98	=98	=98	=98
2-VII	D:maj	184.822	.	voice	2D 2f# 2a
2IV	A:maj	185.765	.	voice	2A 2cc# 2ee
=99	=99	=99	=99	=99	=99
2I	E:maj	186.709	.	voice	2E 2g# 2b
2IV	A:maj	187.653	.	voice	2A 2cc# 2ee
=100	=100	=100	=100	=100	=100
2-VII	D:maj	188.597	.	voice	2D 2f# 2a
2IV	A:maj	189.541	.	voice	2A 2cc# 2ee
=101	=101	=101	=101	=101	=101
*>D_outro	*>D_outro	*>D_outro	*>D_outro	*>D_outro	*>D_outro
2I	E:maj	190.484	newline	voice	2E 2g# 2b
2IV	A:maj	191.427	.	voice	2A 2cc# 2ee
=102	=102	=102	=102	=102	=102
2-VII	D:maj	192.37	.	voice	2D 2f# 2a
2IV	A:maj	193.312	.	voice	2A 2cc# 2ee
=103	=103	=103	=103	=103	=103
2I	E:maj	194.255	.	voice	2E 2g# 2b
2IV	A:maj	195.198	.	voice	2A 2cc# 2ee
=104	=104	=104	=104	=104	=104
2-VII	D:maj	196.14	.	voice	2D 2f# 2a
2IV	A:maj	197.083	.	voice	2A 2cc# 2ee
=105	=105	=105	=105	=105	=105
2I	E:maj	198.026	newline	voice	2E 2g# 2b
2IV	A:maj	198.96	.	voice	2A 2cc# 2ee
=106	=106	=106	=106	=106	=106
2-VII	D:maj	199.894	.	voice	2D 2f# 2a
2IV	A:maj	200.828	.	voice	2A 2cc# 2ee
=107	=107	=107	=107	=107	=107
2I	E:maj	201.762	.	voice	2E 2g# 2b
2IV	A:maj	202.696	.	voice	2A 2cc# 2ee
=108	=108	=108	=108	=108	=108
2-VII	D:maj	203.63	.	voice	2D 2f# 2a
2IV	A:maj	204.565	.	voice	2A 2cc# 2ee
=109	=109	=109	=109	=109	=109
2I	E:maj	205.499	newline	voice	2E 2g# 2b
2IV	A:maj	206.433	.	voice	2A 2cc# 2ee
=110	=110	=110	=110	=110	=110
2-VII	D:maj	207.368	.	voice	2D 2f# 2a
2IV	A:maj	208.303	.	voice	2A 2cc# 2ee
=111	=111	=111	=111	=111	=111
2I	E:maj	209.238	.	voice	2E 2g# 2b
2IV	A:maj	210.172	.	voice	2A 2cc# 2ee
=112	=112	=112	=112	=112	=112
2-VII	D:maj	211.107	.	voice	2D 2f# 2a
2IV	A:maj	212.042	.	voice	2A 2cc# 2ee
=113	=113	=113	=113	=113	=113
2I	E:maj	212.977	newline	voice	2E 2g# 2b
2IV	A:maj	213.669	.	voice	2A 2cc# 2ee
=114	=114	=114	=114	=114	=114
2-VII	D:maj	214.361	.	voice	2D 2f# 2a
2IV	A:maj	215.053	.	voice	2A 2cc# 2ee
=115	=115	=115	=115	=115	=115
1I	E:maj	215.745	.	voice	1E 1g# 1b
1r;	N	217.13	.	r	1r;
1r;	N	219.246	.	r	1r;
*-	*-	*-	*-	*-	*-
!!!OTL: And She Was
!!!COC: Talking Heads
!!!BillboardChartDate: 1985/12/07, 1985/11/30
!!!BillboardPeak: 54, 54
!!!BillboardWeeksOnChart: 20, 20
!!!SampleTargetRank: 88, 66
!!!SampleActualRank: 87, 65
!!!SampleID#: 23, 870
!!!RDF**harmony: **recip + pitch class of root + harmonic quality
!!!RDF**harte: Chris Harte's syntax, used by MIREX
!!!RDF**phrase: newline = linebreak in original McGill transcription
!!!RDF**timestamp: McGill audio timestamp in seconds
!!!RDF**leadinstrument: original McGill primary instrumentation annotation
!!!RDT: 2017/01/12/
!!!ENC: Nathaniel Condit-Schultz
!!!EST: Awating manual error checking and editing.
